X:41
T:Poyntins Whim
B:Walsh
M:4/4
L:1/8
N:
K:F
cB| A2 F4 GA| Bcde fgab| e2 g4 fg| afge fdec| dBcA fdcB| A2 F4::\
fg| agaf bagf| edge fagf| e2 g4 fg| afge fdec| dBcA fdcB| A2 F4:|
